X:34
T:Vals efter Gustaf Elfstr\"om
R:vals
H:efter fl\"ojtisten Gustaf Elfstr\"om (1844-1927), J\"at
A:Sm{\aa}land
B:Sm{\aa}l\"andsk musiktradition II:98
Z:id:hn-vals-34
M:3/4
L:1/8
K:D
A2 f2 d2 | d3 c A2 | c2 B2 G2 | B2 A^G A2 | 
A2 f2 d2 | d3 c A2 | c2 B2 ^G2 | A4 AA :| 
|: A2 c2 d2 | e3 d cB | A2 d2 f2 | a3 f d2 | e2 ec A2 |
e2 ec A2 |1 c2 B2 ^G2 | A4 AA :|2 f2 {gf}e2 c2 | d4 z2 ||

